X:70
T:Hoboi Tiwn Cymraeg - Welsh Oboe Tune
M:6/8
L:1/8
Q:120
C:Trad.
R:Jig
K:D
B2 c dcB | ABG FGA | B2 c dcB |
ABG F3 :||: F2 B GAB | AGA FGA |
F2 B GAB | AGF E3 :||
